assets/images/ico_plus.svg

<svg width="19" height="19" viewBox="0 0 19 19" fill="none" xmlns="http://www.w3.org/2000/svg">
<path d="M9.375 18.6C4.20586 18.6 0 14.4278 0 9.3C0 4.17221 4.20586 0 9.375 0C14.5441 0 18.75 4.17221 18.75 9.3C18.75 14.4278 14.5441 18.6 9.375 18.6ZM9.375 0.775C4.63633 0.775 0.78125 4.59924 0.78125 9.3C0.78125 14.0008 4.63633 17.825 9.375 17.825C14.1137 17.825 17.9688 14.0008 17.9688 9.3C17.9688 4.59924 14.1137 0.775 9.375 0.775Z" fill="#FF3737"/>
<path d="M13.2812 8.91251H9.76562V5.42501C9.76562 5.21111 9.59062 5.03751 9.375 5.03751C9.15938 5.03751 8.98438 5.21111 8.98438 5.42501V8.91251H5.46875C5.25313 8.91251 5.07812 9.08611 5.07812 9.30001C5.07812 9.51391 5.25313 9.68751 5.46875 9.68751H8.98438V13.175C8.98438 13.3893 9.15938 13.5625 9.375 13.5625C9.59062 13.5625 9.76562 13.3893 9.76562 13.175V9.68751H13.2812C13.4973 9.68751 13.6719 9.51391 13.6719 9.30001C13.6719 9.08611 13.4973 8.91251 13.2812 8.91251Z" fill="#FF3737"/>
</svg>

<svg width="19" height="19" fill="none" xmlns="http://www.w3.org/2000/svg"><path d="M9.375 18.6C4.205 18.6 0 14.428 0 9.3 0 4.172 4.206 0 9.375 0c5.17 0 9.375 4.172 9.375 9.3 0 5.128-4.206 9.3-9.375 9.3zm0-17.825C4.636.775.781 4.599.781 9.3c0 4.7 3.855 8.525 8.594 8.525 4.739 0 8.594-3.824 8.594-8.525 0-4.7-3.855-8.525-8.594-8.525z" fill="#FF3737"/><path d="M13.281 8.913H9.766V5.425a.39.39 0 0 0-.391-.387.39.39 0 0 0-.39.387v3.488H5.468a.39.39 0 0 0-.39.387.39.39 0 0 0 .39.388h3.515v3.487c0 .214.175.387.391.387.216 0 .39-.173.39-.387V9.688h3.516c.216 0 .39-.174.39-.388a.389.389 0 0 0-.39-.387z" fill="#FF3737"/></svg>
